X: 2108
Q: "Strathspey."
M: C
L: 1/16
K: G
uD2 |:\
vDG3 Gg3 vd3vG B4 | vDG3 Gg3 vd3uG Bg3 |\
ve3vfug3ua vb3uevgb3 |\
[1 ve3vfug3ue vdB3B3ud | ve3vgud3uB cBAG E3F :|\
[2 ve3uf agfe dB3B3ud | e3gd3B cBAG E2 |]


